src/assets/icons/arrow-right-transparent.svg

<svg width="17" height="30" viewBox="0 0 17 30" fill="none" xmlns="http://www.w3.org/2000/svg">
<path d="M16.4142 16.4142C17.1953 15.6332 17.1953 14.3668 16.4142 13.5858L3.68629 0.857864C2.90524 0.0768158 1.63891 0.0768158 0.857864 0.857864C0.0768158 1.63891 0.0768158 2.90524 0.857864 3.68629L12.1716 15L0.857864 26.3137C0.0768158 27.0948 0.0768158 28.3611 0.857864 29.1421C1.63891 29.9232 2.90524 29.9232 3.68629 29.1421L16.4142 16.4142ZM13 17H15V13H13V17Z" fill="#28282D" fill-opacity="0.4"/>
</svg>

<svg xmlns="http://www.w3.org/2000/svg" width="17" height="30" fill="none" xmlns:v="https://vecta.io/nano"><path d="M16.414 16.414a2 2 0 0 0 0-2.828L3.686.858A2 2 0 0 0 .858 3.686L12.172 15 .858 26.314a2 2 0 0 0 0 2.828 2 2 0 0 0 2.828 0l12.728-12.728zM13 17h2v-4h-2v4z" fill="#28282d" fill-opacity=".4"/></svg>
